X:655
T:untitled
A:Wyresdale, Lancashire
B:E and J Winder, 1835-41
L:1/8
M:2/4
O:England
Z:Richard Robinson 
%%TUNEURL: http://www.leeds.ac.uk/music/Info/RRTuneBk/gettune/00000efb.html
%%ID:00000efb
K:C
g>a g/a/g/f/ | eccf | (ec)(fd) | (ec)(fd) | \
g>a g/a/g/f/ | ecce | BdcB | c2 c2 ::
.g.g.c'.c' | .e.e.g.g | d>e d/e/d/c/ | Bd c/d/e/f/ | \
g>a g/a/g/f/ | eccd | BdcB | c2 c2 |]
%%newpage
%page 43
